packages/icons/src/components/Logo/assets/light/qwen.svg

<svg width="20" height="20" viewBox="0 0 20 20" fill="none" xmlns="http://www.w3.org/2000/svg">
<path fill-rule="evenodd" clip-rule="evenodd" d="M12.4467 8.29333C12.4823 8.29333 12.4912 8.31111 12.4734 8.33778L11.869 9.39556L9.98451 12.7111C9.98451 12.7289 9.96673 12.7289 9.94896 12.7289C9.93118 12.7289 9.92229 12.7289 9.9134 12.7111L7.41562 8.35555C7.39785 8.32889 7.41562 8.32 7.4334 8.32H7.5934L12.4556 8.30222L12.4467 8.29333ZM7.90451 2.49778C7.88673 2.49778 7.87785 2.49778 7.86896 2.51556L5.79785 6.14222C5.78007 6.17778 5.74451 6.19556 5.70007 6.19556H3.62896C3.58451 6.19556 3.57562 6.21333 3.60229 6.24889L7.79785 13.5911C7.81562 13.6178 7.80674 13.6356 7.77118 13.6356H5.7534C5.69118 13.6356 5.63785 13.6711 5.61118 13.7333L4.66007 15.4044C4.62451 15.4578 4.64229 15.4933 4.7134 15.4933H8.84674C8.88229 15.4933 8.90896 15.5111 8.91785 15.5467L9.93118 17.3244C9.96674 17.3867 9.9934 17.3867 10.029 17.3244L13.6467 10.9956L14.2156 10C14.2156 9.98222 14.2334 9.98222 14.2512 9.98222C14.269 9.98222 14.2778 9.98222 14.2867 10L15.3178 11.8311C15.3356 11.8578 15.3623 11.8756 15.3978 11.8756L17.3978 11.8578C17.4067 11.8578 17.4156 11.8578 17.4245 11.84C17.4245 11.8311 17.4245 11.8222 17.4245 11.8133L15.3267 8.13333C15.309 8.10667 15.309 8.08 15.3267 8.05333L15.5401 7.68889L16.349 6.25778C16.3667 6.23111 16.349 6.21333 16.3223 6.21333H7.94007C7.89562 6.21333 7.88674 6.19556 7.9134 6.16L8.9534 4.34667C8.97118 4.32 8.97118 4.29333 8.9534 4.26667L7.96673 2.53333C7.96673 2.51556 7.94896 2.50667 7.93118 2.50667L7.90451 2.49778ZM10.3845 2.21333C10.669 2.71111 10.9534 3.20889 11.229 3.71556C11.2556 3.76 11.2912 3.77778 11.3445 3.77778H15.3534C15.4778 3.77778 15.5845 3.85778 15.6734 4.01778L16.7223 5.87555C16.8556 6.11555 16.9001 6.22222 16.7401 6.48C16.5534 6.79111 16.3667 7.10222 16.189 7.42222L15.9223 7.90222C15.8423 8.04445 15.7623 8.10667 15.8956 8.27555L17.8156 11.6267C17.9401 11.84 17.8956 11.9822 17.789 12.1867C17.469 12.7556 17.149 13.3156 16.8201 13.8756C16.7045 14.0711 16.5623 14.1422 16.3312 14.1422C15.7712 14.1333 15.2112 14.1422 14.6512 14.1511C14.6245 14.1511 14.6067 14.1689 14.589 14.1867C13.9401 15.3333 13.2912 16.4711 12.6334 17.6089C12.509 17.8222 12.3578 17.8756 12.109 17.8756C11.389 17.8756 10.6601 17.8756 9.93118 17.8756C9.78007 17.8756 9.6734 17.8133 9.5934 17.68L8.62451 16C8.61562 15.9733 8.58896 15.9644 8.56229 15.9644H4.86451C4.66007 15.9822 4.46451 15.9644 4.28673 15.9022L3.13118 13.9022C3.06007 13.7689 3.06007 13.6444 3.13118 13.5111L4.00229 11.9822C4.02896 11.9378 4.02896 11.8844 4.00229 11.84C3.54896 11.0489 3.09562 10.2667 2.65118 9.47555L2.08229 8.47111C1.96673 8.24889 1.95785 8.11555 2.1534 7.77778C2.49118 7.19111 2.82007 6.60444 3.15785 6.01778C3.25562 5.84889 3.38007 5.77778 3.57562 5.77778C4.19785 5.77778 4.82007 5.77778 5.45118 5.77778C5.48674 5.77778 5.5134 5.76 5.53118 5.73333L7.55785 2.19556C7.62896 2.08 7.72674 2.01778 7.86007 2.01778C8.24229 2.01778 8.62451 2.01778 9.00674 2.01778L9.74451 2C9.9934 2 10.269 2.02667 10.3934 2.24889L10.3845 2.21333Z" fill="#615CED"/>
</svg>

<svg xmlns="http://www.w3.org/2000/svg" width="20" height="20" fill="none" viewBox="0 0 20 20">
    <path fill="#615ced" fill-rule="evenodd" d="M12.447 8.293c.035 0 .044.018.026.045l-.604 1.058-1.884 3.315c0 .018-.018.018-.036.018s-.027 0-.036-.018L7.416 8.356c-.018-.027 0-.036.017-.036h.16l4.863-.018zM7.905 2.498c-.018 0-.027 0-.036.018L5.798 6.142q-.029.054-.098.054H3.63q-.066 0-.027.053l4.196 7.342c.018.027.009.045-.027.045H5.753a.15.15 0 0 0-.142.097l-.95 1.671c-.036.054-.019.09.052.09h4.134c.035 0 .062.017.07.053l1.014 1.777c.036.063.062.063.098 0l3.618-6.328.569-.996c0-.018.017-.018.035-.018s.027 0 .036.018l1.03 1.831a.1.1 0 0 0 .08.045l2-.018c.01 0 .019 0 .027-.018v-.027l-2.097-3.68a.07.07 0 0 1 0-.08l.213-.364.809-1.431c.018-.027 0-.045-.027-.045H7.94q-.066 0-.027-.053l1.04-1.813a.07.07 0 0 0 0-.08l-.986-1.734c0-.017-.018-.026-.036-.026zm2.48-.285c.284.498.568.996.844 1.503.027.044.062.062.116.062h4.008q.188 0 .32.24l1.05 1.858c.133.24.177.346.017.604-.187.311-.373.622-.551.942l-.267.48c-.08.142-.16.205-.026.374l1.92 3.35c.124.214.08.356-.027.56-.32.57-.64 1.13-.969 1.69-.116.195-.258.266-.489.266-.56-.009-1.12 0-1.68.01-.027 0-.044.017-.062.035a428 428 0 0 1-1.956 3.422c-.124.213-.275.267-.524.267H9.931a.37.37 0 0 1-.338-.196L8.625 16c-.01-.027-.036-.036-.063-.036H4.865q-.31.029-.578-.062l-1.156-2a.39.39 0 0 1 0-.39l.871-1.53a.14.14 0 0 0 0-.142c-.453-.791-.906-1.573-1.35-2.364l-.57-1.005c-.115-.222-.124-.355.071-.693.338-.587.667-1.174 1.005-1.76a.43.43 0 0 1 .418-.24H5.45a.1.1 0 0 0 .08-.045l2.027-3.537a.34.34 0 0 1 .302-.178h1.147L9.745 2c.248 0 .524.027.648.249z" clip-rule="evenodd"/>
</svg>
